X:1
T:Title
%%score { ( 1 3 ) | ( 2 4 ) }
L:1/8
M:2/4
K:Eb
V:1 treble nm="Grand Piano"
V:3 treble 
V:2 bass 
V:4 bass 
V:1
 z2 z[Q:1/4=94] B, | E2 EE | E2 DE | [DF]2 [DG]>[DF] | E3 F | G2 G[EG] | [EA]2 [Ec][Ec] | B4- | %8
 B2 z2 | c2 cc | B2 BB | [Ad]2 [Ad][Ad] | [Ge]2 GG | F2 Bd | c2 Fc | [DB]4- | [DB] z [DF]2 | %17
 [DF]2 [DF][EG] | [FA]2 [EG][DF] | E2 EF | G2 [EG][EG] | [EA]2 [EA][EA] | [Ec]2 [Ec][Ec] | B4- | %24
 B2 z2 | c2 cc | B2 EE | A2 [DB][DA] | G2 GG | [CF]2 [CG][CA] | [G,B,E]2 [B,DG]>[A,DF] | [G,E]4- | %32
[M:3/8] [G,E]3 |] %33
V:2
 z2 z [E,G,] | [E,G,B,]2 [E,G,B,][E,G,B,] | [E,G,B,]2 [E,F,B,][E,G,B,] | [B,,A,]2 [B,,B,]>[B,,A,] | %4
 [E,G,]3 [E,A,E] | [E,B,E]2 [E,B,E][_D,B,] | [C,A,]2 [A,,A,][A,,A,] | [E,G,E]2 [F,A,]2 | %8
 [G,B,]2 E[K:treble]E | [A,E]2 [A,E][A,E] | [G,B,E]2[K:bass] [G,B,E][G,B,E] | %11
 [F,B,]2 [B,,B,][B,,B,] | [E,B,]2 [E,B,E][E,B,E] | [F,B,D]2 [F,B,D][F,B,F] | %14
 [F,=A,E]2 [F,A,E][F,A,E] | [B,,B,]4- | [B,,B,] z [B,,B,]2 | [B,,B,]2 [B,,B,][B,,B,] | %18
 [B,,B,]2 [B,,B,][B,,A,] | [E,G,]2 [E,G,][E,A,E] | [E,B,E]2 [D,B,][_D,B,] | [C,A,]2 [C,A,][C,A,] | %22
 [A,,A,]2 [A,,A,][A,,A,] | [E,G,E]2 [F,A,]2 | [G,B,]2 [E,G,E][E,G,E] | [A,E]2 [A,E][A,E] | %26
 [G,B,E]2 [G,B,][G,B,] | [F,B,D]2 [B,,B,][B,,B,] | [E,B,E]2 [E,B,E][E,B,E] | %29
 [A,,A,]2 [A,,G,][A,,F,] | B,,2 B,,>B,, | E,4- |[M:3/8] E,3 |] %33
V:3
 x4 | x4 | x4 | x4 | x4 | x4 | x4 | z2 D2 | E2 BB | x4 | x4 | x4 | x4 | x4 | x4 | x4 | x4 | x4 | %18
 x4 | x4 | x4 | x4 | x4 | z2 D2 | E2 BB | x4 | x4 | x4 | x4 | x4 | x4 | x4 |[M:3/8] x3 |] %33
V:4
 x4 | x4 | x4 | x4 | x4 | x4 | x4 | x4 | z2 [E,G,]2[K:treble] | x4 | x2[K:bass] x2 | x4 | x4 | x4 | %14
 x4 | x4 | x4 | x4 | x4 | x4 | x4 | x4 | x4 | x4 | x4 | x4 | x4 | x4 | x4 | x4 | x4 | x4 | %32
[M:3/8] x3 |] %33

